svg/u1f52a.svg

<svg viewBox="0 0 128 128" xmlns="http://www.w3.org/2000/svg">
  <path d="M52.96,41.07l-8.81,10.54c0,0,1.04,0.66,2.76,2.39c1.72,1.72,2.61,4.71,2.61,4.71 s15.6-1.32,15.6-1.62s-5.15-10.12-5.15-10.12l-6.26-5.89L52.96,41.07z" fill="#B0B0B0"/>
  <path d="M45.87,70.25l-3.9,0.69c0,0-3.14,2.61-2.68,4.07c0.39,1.25,9.95,10.87,16.62,16.62 c8.11,6.99,23.81,18.34,38.6,24.62c13.98,5.94,22.93,7.04,26.27,6.92c3.02-0.11,4.26-2,3.15-2.71 c-1.11-0.71-36.51-28.12-36.51-28.12L45.87,70.25z" fill="#B0B0B0"/>
  <path d="M59.96,46.96L49.11,57.39c0,0,0.81,3.34-1.42,6.59c-2.23,3.24-5.77,6.99-5.77,6.99 s11.53,13.25,25.23,23.5c19.35,14.49,33.15,21.24,42.65,24.01c8.78,2.56,14.42,2.26,14.42,2.26s-9.21-14.01-19.08-25.97 c-6.28-7.6-25.91-28.96-32.3-35.34C66.46,53.05,59.96,46.96,59.96,46.96z" fill="#E0E0E0"/>
  <path d="M10.18,13.81L7.5,11.47c0,0-5.06,6-4.12,8.91c0.82,2.53,12.1,11.49,22.19,19.76 c8.16,6.68,14.64,12.2,16.42,12.6c2.09,0.48,3.41-1.27,3.41-1.27L10.18,13.81z" fill="#474C4F"/>
  <path d="M17.33,4.73c-2.81-0.65-8.61,4.49-10.86,8.24s-0.04,6.15,3.18,8.99 c1.49,1.31,35.68,29.59,35.68,29.59s3.33-3.09,5.25-5.02c2.29-2.33,4.82-4.57,4.78-5.52c-0.07-1.42-15.57-15.39-21.29-21.28 C27.32,12.79,19.76,5.3,17.33,4.73z" fill="#5E6367"/>
  <path d="M18.88,13.71c-0.85-0.79-2.17-0.79-3.36,0.13c-1.18,0.92-1.38,2.83-0.13,3.82s3.03,0.66,3.82-0.39 C20,16.21,19.87,14.63,18.88,13.71z" fill="#B0B0B0"/>
  <path d="M46.65,39.36c-1.2-0.96-2.76-0.4-3.42,0.53c-0.66,0.92-0.79,2.5,0.26,3.36 c1.05,0.86,2.62,0.4,3.34-0.45C47.68,41.79,47.64,40.15,46.65,39.36z" fill="#B0B0B0"/>
</svg>

<svg viewBox="0 0 128 128" xmlns="http://www.w3.org/2000/svg">
  <defs/>
  <path d="M52.96,41.07 L44.15,51.61 C44.15,51.61 45.19,52.27 46.91,54 C48.63,55.72 49.52,58.71 49.52,58.71 C49.52,58.71 65.12,57.39 65.12,57.09 C65.12,56.79 59.97,46.97 59.97,46.97 L53.71,41.08 L52.96,41.07 Z" fill="#B0B0B0"/>
  <path d="M45.87,70.25 L41.97,70.94 C41.97,70.94 38.83,73.55 39.29,75.01 C39.68,76.26 49.24,85.88 55.91,91.63 C64.02,98.62 79.72,109.97 94.51,116.25 C108.49,122.19 117.44,123.29 120.78,123.17 C123.8,123.06 125.04,121.17 123.93,120.46 C122.82,119.75 87.42,92.34 87.42,92.34 L45.87,70.25 Z" fill="#B0B0B0"/>
  <path d="M59.96,46.96 L49.11,57.39 C49.11,57.39 49.92,60.73 47.69,63.98 C45.46,67.22 41.92,70.97 41.92,70.97 C41.92,70.97 53.45,84.22 67.15,94.47 C86.5,108.96 100.3,115.71 109.8,118.48 C118.58,121.04 124.22,120.74 124.22,120.74 C124.22,120.74 115.01,106.73 105.14,94.77 C98.86,87.17 79.23,65.81 72.84,59.43 C66.46,53.05 59.96,46.96 59.96,46.96 Z" fill="#E0E0E0"/>
  <path d="M10.18,13.81 L7.5,11.47 C7.5,11.47 2.44,17.47 3.38,20.38 C4.2,22.91 15.48,31.87 25.57,40.14 C33.73,46.82 40.21,52.34 41.99,52.74 C44.08,53.22 45.4,51.47 45.4,51.47 L10.18,13.81 Z" fill="#474C4F"/>
  <path d="M17.33,4.73 C14.52,4.08 8.72,9.22 6.47,12.97 C4.22,16.72 6.43,19.12 9.65,21.96 C11.14,23.27 45.33,51.55 45.33,51.55 C45.33,51.55 48.66,48.46 50.58,46.53 C52.87,44.2 55.4,41.96 55.36,41.01 C55.29,39.59 39.79,25.62 34.07,19.73 C27.32,12.79 19.76,5.3 17.33,4.73 Z" fill="#5E6367"/>
  <path d="M18.88,13.71 C18.03,12.92 16.71,12.92 15.52,13.84 C14.34,14.76 14.14,16.67 15.39,17.66 C16.64,18.65 18.42,18.32 19.21,17.27 C20,16.21 19.87,14.63 18.88,13.71 Z" fill="#B0B0B0"/>
  <path d="M46.65,39.36 C45.45,38.4 43.89,38.96 43.23,39.89 C42.57,40.81 42.44,42.39 43.49,43.25 C44.54,44.11 46.11,43.65 46.83,42.8 C47.68,41.79 47.64,40.15 46.65,39.36 Z" fill="#B0B0B0"/>
</svg>
